TechElite/wwwroot/img/Icons/account.svg

<?xml version="1.0" encoding="UTF-8" standalone="no"?>
<svg
   height="24px"
   viewBox="0 -960 960 960"
   width="24px"
   fill="#e8eaed"
   version="1.1"
   id="svg1"
   sodipodi:docname="account.svg"
   inkscape:version="1.3.2 (091e20e, 2023-11-25, custom)"
   xmlns:inkscape="http://www.inkscape.org/namespaces/inkscape"
   xmlns:sodipodi="http://sodipodi.sourceforge.net/DTD/sodipodi-0.dtd"
   xmlns="http://www.w3.org/2000/svg"
   xmlns:svg="http://www.w3.org/2000/svg">
  <defs
     id="defs1" />
  <sodipodi:namedview
     id="namedview1"
     pagecolor="#ffffff"
     bordercolor="#111111"
     borderopacity="1"
     inkscape:showpageshadow="0"
     inkscape:pageopacity="0"
     inkscape:pagecheckerboard="1"
     inkscape:deskcolor="#d1d1d1"
     inkscape:zoom="16"
     inkscape:cx="3.21875"
     inkscape:cy="10.625"
     inkscape:window-width="2560"
     inkscape:window-height="1374"
     inkscape:window-x="1304"
     inkscape:window-y="28"
     inkscape:window-maximized="1"
     inkscape:current-layer="svg1" />
  <path
     d="m 234,-276 c 34,-26 72,-46.5 114,-61.5 42,-15 86,-22.5 132,-22.5 46,0 90,7.5 132,22.5 42,15 80,35.5 114,61.5 23.33333,-27.33333 41.5,-58.33333 54.5,-93 13,-34.66667 19.5,-71.66667 19.5,-111 0,-88.66667 -31.16667,-164.16667 -93.5,-226.5 C 644.16667,-768.83333 568.66667,-800 480,-800 c -88.66667,0 -164.16667,31.16667 -226.5,93.5 -62.33333,62.33333 -93.5,137.83333 -93.5,226.5 0,39.33333 6.5,76.33333 19.5,111 13,34.66667 31.16667,65.66667 54.5,93 z m 246,-164 c -39.33333,0 -72.5,-13.5 -99.5,-40.5 -27,-27 -40.5,-60.16667 -40.5,-99.5 0,-39.33333 13.5,-72.5 40.5,-99.5 27,-27 60.16667,-40.5 99.5,-40.5 39.33333,0 72.5,13.5 99.5,40.5 27,27 40.5,60.16667 40.5,99.5 0,39.33333 -13.5,72.5 -40.5,99.5 -27,27 -60.16667,40.5 -99.5,40.5 z m 0,360 c -55.33333,0 -107.33333,-10.5 -156,-31.5 -48.66667,-21 -91,-49.5 -127,-85.5 -36,-36 -64.5,-78.33333 -85.5,-127 -21,-48.66667 -31.5,-100.66667 -31.5,-156 0,-55.33333 10.5,-107.33333 31.5,-156 21,-48.66667 49.5,-91 85.5,-127 36,-36 78.33333,-64.5 127,-85.5 48.66667,-21 100.66667,-31.5 156,-31.5 55.33333,0 107.33333,10.5 156,31.5 48.66667,21 91,49.5 127,85.5 36,36 65.8203,79.91422 85.5,127 20.45735,48.94637 31.5,100.66667 31.5,156 0,55.33333 -10.5,107.33333 -31.5,156 -21,48.66667 -49.5,91 -85.5,127 -36,36 -78.33333,64.5 -127,85.5 -48.66667,21 -100.66667,31.5 -156,31.5 z m 0,-80 c 35.33333,0 68.66667,-5.16667 100,-15.5 31.33333,-10.33333 60,-25.16667 86,-44.5 -26,-19.33333 -54.66667,-34.16667 -86,-44.5 -31.33333,-10.33333 -64.66667,-15.5 -100,-15.5 -35.33333,0 -68.66667,5.16667 -100,15.5 -31.33333,10.33333 -60,25.16667 -86,44.5 26,19.33333 54.66667,34.16667 86,44.5 31.33333,10.33333 64.66667,15.5 100,15.5 z m 0,-360 c 17.33333,0 31.66667,-5.66667 43,-17 11.33333,-11.33333 17,-25.66667 17,-43 0,-17.33333 -5.66667,-31.66667 -17,-43 -11.33333,-11.33333 -25.66667,-17 -43,-17 -17.33333,0 -31.66667,5.66667 -43,17 -11.33333,11.33333 -17,25.66667 -17,43 0,17.33333 5.66667,31.66667 17,43 11.33333,11.33333 25.66667,17 43,17 z"
     id="path1"
     sodipodi:nodetypes="cssscssssssscssssssssssssssssssssassssssscssscsssssssssss"
     style="fill:#e3e3e3;fill-opacity:1"
     inkscape:export-filename="account.svg"
     inkscape:export-xdpi="96"
     inkscape:export-ydpi="96" />
  <g
     inkscape:groupmode="layer"
     id="layer1"
     inkscape:label="Layer 1" />
</svg>

<svg xmlns="http://www.w3.org/2000/svg" height="24px" viewBox="0 -960 960 960" width="24px" fill="#e8eaed"><path d="M234-276q51-39 114-61.5T480-360q69 0 132 22.5T726-276q35-41 54.5-93T800-480q0-133-93.5-226.5T480-800q-133 0-226.5 93.5T160-480q0 59 19.5 111t54.5 93Zm246-164q-59 0-99.5-40.5T340-580q0-59 40.5-99.5T480-720q59 0 99.5 40.5T620-580q0 59-40.5 99.5T480-440Zm0 360q-83 0-156-31.5T197-197q-54-54-85.5-127T80-480q0-83 31.5-156T197-763q54-54 127-85.5T480-880q83 0 156 31.5T763-763q54 54 85.5 127T880-480q0 83-31.5 156T763-197q-54 54-127 85.5T480-80Zm0-80q53 0 100-15.5t86-44.5q-39-29-86-44.5T480-280q-53 0-100 15.5T294-220q39 29 86 44.5T480-160Zm0-360q26 0 43-17t17-43q0-26-17-43t-43-17q-26 0-43 17t-17 43q0 26 17 43t43 17Zm0-60Zm0 360Z"/></svg>
